X:243
T:Mr Clark’s Hornpipe TS.243
M:C
L:1/8
Q:1/2=90
S:Thomas Sands’ MS,1810,Lincolnshire
R:.hornpipe
O:England;Lincolnshire
Z:vmp.Ruairidh Greig, 2011
K:Bb
DC|B,DFB dFED|CEGc eGFE|DB,FD BFdB|A/B/cc2c2DC|
B,DFB dFED|CEGc eGFE|DFEG Fgfe|d2B2B2:|
|:fg|afdB Aceg|fdcB BAGF|ecec dBdB|AEFE FDEF|
GEGB edcB|AFAc fedc|Bbag fedc|B2B2B2:|]

